X:2039
T:The wind that shakes(shook) the barley
T:(?Scotch air) 
C:Traditional
O:Isle of Man
Z:Clague collection
B:Kiaull Vannin #39 (A)
N:In MS tune is written without the f# key signature. (Edited version) 
M:2/4 
L:1/8 
Q:160 
K:G 
e|d>B G>A|B>A B>e|d>B G>A|B>A A>e|d>B G>A|B>A B>c|d>f g>e|d>B B:| 
d|g2 g2|f>g a2|g>f g>e|d>c B>d|g2 g2|f>g a2|b>a g>e|d>B B:| 
